Origami/32x32/apps/fontypython.svg

<svg width="32" height="32" version="1" xmlns="http://www.w3.org/2000/svg">
 <rect transform="matrix(0,-1,-1,0,0,0)" x="-31" y="-30" width="28" height="28" rx="1.4" ry="1.4" style="opacity:.2"/>
 <rect transform="matrix(0,-1,-1,0,0,0)" x="-30" y="-30" width="28" height="28" rx="1.4" ry="1.4" style="fill:#6493a6"/>
 <path d="M 14.599609,7 C 11.497209,7 9,9.4972102 9,12.599609 L 9,15.400391 9,18.199219 9,21 l 0,4.449219 0,1.15039 C 9,27.375209 9.7243992,28 10.5,28 11.2756,28 12,27.375209 12,26.599609 L 12,21 14.599609,21 16,21 16,18 14.666016,18 C 13.142274,18 12,16.857726 12,15.333984 l 0,-2.667968 C 12,11.142274 13.142274,10 14.666016,10 L 16,10 16,7 14.599609,7 Z" style="opacity:.2"/>
 <path d="m14.599609 6c-3.1024 0-5.599609 2.4972102-5.599609 5.599609v2.800782 2.798828 2.800781 4.449219 1.15039c0 0.7756 0.7243992 1.400391 1.5 1.400391 0.7756 0 1.5-0.624791 1.5-1.400391v-5.599609h2.599609 1.400391v-3h-1.333984c-1.523742 0-2.666016-1.142274-2.666016-2.666016v-2.667968c0-1.523742 1.142274-2.6660159 2.666016-2.666016h1.333984v-3h-1.400391z" style="fill:#3f3f3f"/>
 <path d="m 16,7 0,3 1.333984,0 C 18.857726,10 20,11.142274 20,12.666016 l 0,2.667968 C 20,16.857726 18.857726,18 17.333984,18 L 16,18 l 0,3 1.400391,0 C 20.502791,21 23,18.502791 23,15.400391 l 0,-2.800782 C 23,9.4972102 20.502791,7 17.400391,7 Z" style="opacity:.2"/>
 <path d="m 16,6 0,3 1.333984,0 C 18.857726,9 20,10.142274 20,11.666016 l 0,2.667968 C 20,15.857726 18.857726,17 17.333984,17 L 16,17 l 0,3 1.400391,0 C 20.502791,20 23,17.502791 23,14.400391 l 0,-2.800782 C 23,8.4972102 20.502791,6 17.400391,6 Z" style="fill:#ffffff"/>
 <path d="M 3.4003906 2 C 2.6247906 2 2 2.6247906 2 3.4003906 L 2 4.4003906 C 2 3.6247906 2.6247906 3 3.4003906 3 L 28.599609 3 C 29.375209 3 30 3.6247906 30 4.4003906 L 30 3.4003906 C 30 2.6247906 29.375209 2 28.599609 2 L 3.4003906 2 z" style="fill:#ffffff;opacity:.2"/>
</svg>

<svg xmlns="http://www.w3.org/2000/svg" width="32" height="32" version="1">
 <rect style="opacity:0.2" width="28" height="28" x="-31" y="-30" rx="1.4" ry="1.4" transform="matrix(0,-1,-1,0,0,0)"/>
 <rect style="fill:#6493a6" width="28" height="28" x="-30" y="-30" rx="1.4" ry="1.4" transform="matrix(0,-1,-1,0,0,0)"/>
 <path style="opacity:0.2" d="M 14.599609,7 C 11.497209,7 9,9.4972102 9,12.599609 L 9,15.400391 9,18.199219 9,21 l 0,4.449219 0,1.15039 C 9,27.375209 9.7243992,28 10.5,28 11.2756,28 12,27.375209 12,26.599609 L 12,21 14.599609,21 16,21 16,18 14.666016,18 C 13.142274,18 12,16.857726 12,15.333984 l 0,-2.667968 C 12,11.142274 13.142274,10 14.666016,10 L 16,10 16,7 14.599609,7 Z"/>
 <path style="fill:#3f3f3f" d="M 14.599609 6 C 11.497209 6 9 8.4972102 9 11.599609 L 9 14.400391 L 9 17.199219 L 9 20 L 9 24.449219 L 9 25.599609 C 9 26.375209 9.7243992 27 10.5 27 C 11.2756 27 12 26.375209 12 25.599609 L 12 20 L 14.599609 20 L 16 20 L 16 17 L 14.666016 17 C 13.142274 17 12 15.857726 12 14.333984 L 12 11.666016 C 12 10.142274 13.142274 9.0000001 14.666016 9 L 16 9 L 16 6 L 14.599609 6 z"/>
 <path style="opacity:0.2" d="m 16,7 0,3 1.333984,0 C 18.857726,10 20,11.142274 20,12.666016 l 0,2.667968 C 20,16.857726 18.857726,18 17.333984,18 L 16,18 l 0,3 1.400391,0 C 20.502791,21 23,18.502791 23,15.400391 l 0,-2.800782 C 23,9.4972102 20.502791,7 17.400391,7 Z"/>
 <path style="fill:#ffffff" d="m 16,6 0,3 1.333984,0 C 18.857726,9 20,10.142274 20,11.666016 l 0,2.667968 C 20,15.857726 18.857726,17 17.333984,17 L 16,17 l 0,3 1.400391,0 C 20.502791,20 23,17.502791 23,14.400391 l 0,-2.800782 C 23,8.4972102 20.502791,6 17.400391,6 Z"/>
 <path style="fill:#ffffff;opacity:0.2" d="M 3.4003906 2 C 2.6247906 2 2 2.6247906 2 3.4003906 L 2 4.4003906 C 2 3.6247906 2.6247906 3 3.4003906 3 L 28.599609 3 C 29.375209 3 30 3.6247906 30 4.4003906 L 30 3.4003906 C 30 2.6247906 29.375209 2 28.599609 2 L 3.4003906 2 z"/>
</svg>
